X:1
T:Jubilate Deo
T:Jubilate Deo
T:W. A. Mozart
C:W. A. Mozart
%%score [ 1 2 3 4 ]
L:1/8
Q:1/4=144
M:2/2
K:G
V:1 treble nm="Soprano"
V:2 treble nm="Alto"
V:3 treble-8 nm="Tenor"
V:4 bass nm="Bass"
V:1
"^Allegro" z4 B2 B2 | c4 B4 | e4 d4 | c2 c2 c4 | B4 z4 | z8 | z8 | z8 | z4 d4 | B4 ^c2 d2 | %10
w: Ju- bi-|la- te|De- o|om- nis ter-|ra,||||ser-|vi- te _|
 e4 d2 e2 | ^c4 d2 e2 | f4 e2 f2 | d4 e2 e2 | d4 ^c4 |1 d8 :|2 d4 d4 || d6 c2 | B4 B4 | B4 A4 | %20
w: Do- mi- *|no in _|lae- ti- ti-|a, in lae-|ti- ti-|a.|\-a. Lau-|da- te|no- men|e- jus,|
 d8 | d6 c2 | _B4 B4 |"^Rall." _B4 A4 |[Q:1/4=172]"^Vivace" z8 | z8 | z4 G2 A2 | B2 c2 d2 c2 | %28
w: lau-|da- te|no- men|e- jus,|||quo- ni-|am su- a- vis|
 B2 G2 d4- | d4 ^c4 | d4 g4 | e2 c2 f4 | d2 B2 e4 | c2 A2 d4- | d2 c2 B4- | B2 A2 G4- | %36
w: est _ Do-|* mi-|nus, Al-|* * le-|* * lu-|* * ja,|_ _ al-|* * le-|
"^rall." G4 F4 | !fermata!G8 |] %38
w: * lu-|ja.|
V:2
 z4 G2 G2 | A4 G4 | G4 G4 | G2 G2 F4 | G4 z4 | z8 | z8 | z4 A4 | F4 G2 A2 | D4 ^C2 B,2 | G4 A2 B2 | %11
w: Ju- bi-|la- te|De- o|om- nis ter-|ra,|||ser-|vi- te _|Do- mi- *|no, Do- mi-|
 E4 A2 A2 | A4 B2 ^c2 | B4 B2 B2 | A6 G2 |1 F8 :|2 F4 z4 || G4 G2 F2 | G4 G4 | G4 F4 | z4 D4 | %21
w: no in lae-|ti- ti- *|a, in lae-|ti- ti-|a.|\-a.|Lau- da- te|no- men|e- jus,|lau-|
 G6 F2 | G4 G4 | G4 F4 | z4 F2 F2 | F4 E4 | D4 G4 | G4 F4 | G4 D2 E2 | F2 G2 A2 G2 | F2 A2 G4- | %31
w: da- te|no- men|e- jus,|quo- ni-|am su-|a- vis|Do- mi-|nus est _|_ _ Do- mi-|nus, _ Al-|
 G4 c2 A2 | F4 B2 A2 | E4 A2 F2 | B2 A2 G4- | G2 F2 E4- | E4 D4 | !fermata!D8 |] %38
w: |le- * *|lu- * *|ja, _ al-|* le- lu-||ja.|
V:3
 z4 d2 d2 | d4 d4 | c4 d4 | e2 e2 d4 | d4 z4 | z4 d4 | f4 e2 d2 | ^c4 c4 | d4 d2 d2 | d4 G4 | %10
w: Ju- bi-|la- te|De- o|om- nis ter-|ra,|ser-|vi- te _|Do- mi-|no, Do- mi-|no ser-|
 E4 F2 G2 | A4 A2 ^c2 | ^c4 B2 A2 | f4 e2 e2 | e6 e2 |1 d8 :|2 d4 z4 || B4 B2 c2 | d4 d4 | d4 d4 | %20
w: vi- te _|in- lae- *|ti- ti- *|a, in lae-|ti- ti-|a.|\-a.|Lau- da- te|no- men|e- jus,|
 z4 d4 | _B6 c2 | d4 d4 | d4 d4 | z4 d2 d2 | d4 ^c4 | d4 =c4 | B4 A4 | B4 f4 | f4 e4 | d4 d4- | %31
w: lau-|da- te|no- men|e- jus,|quo- ni-|am su-|a- vis|Do- mi-|nus est|Do- mi-|nus, Al-|
 d2 e2 c4- | c2 d2 B4- | B2 c2 A4 | G6 A2 | B6 cB | A8 | !fermata!B8 |] %38
w: * * le-|* * lu-|* * ja,|al- le-|lu- * *||ja.|
V:4
 z4 G,2 G,2 | F,4 G,4 | C4 B,4 | A,2 A,2 D,4 | G,4 G,4 | B,4 A,2 G,2 | F,4 ^G,4 | %7
w: Ju- bi-|la- te|De- o|om- nis ter-|ra, ser-|vi- te _|Do- mi-|
 A,2 =G,2 F,2 E,2 | D,2 C,2 B,,2 A,,2 | G,,4 z4 | z8 | z4 A,2 A,2 | F,4 G,2 A,2 | B,4 G,2 G,2 | %14
w: no _ in lae-|ti- * ti- *|a,||in lae-|ti- ti- *|a, in lae-|
 A,6 A,2 |1 D,8 :|2 D,4 z4 || G,4 G,2 A,2 | B,4 G,4 | D,4 D,4 | z4 D,4 | G,6 A,2 | _B,4 G,4 | %23
w: ti- ti-|a.|\-a.|Lau- da- te|no- men|e- jus,|lau-|da- te|no- men|
 D,4 D,4 | z4 D,2 E,2 | F,2 G,2 A,2 G,2 | F,2 D,2 E,3 E, | D,8 | G,4 B,4 | A,4 A,4 | D,4 B,2 G,2 | %31
w: e- jus,|quo- ni-|am su- a- vis|est _ Do- mi-|nus|est _|Do- mi-|nus, Al- *|
 C4 A,2 F,2 | B,4 G,2 E,2 | A,4 F,2 D,2 | G,6 F,2 | E,6 D,2 | C,4 D,4 | !fermata!G,,8 |] %38
w: * le- *|lu- * *|ja, _ _|al- le-|lu- *||ja.|

